X:1037
T:Together
C:Colin Hume, 1998
L:1/4
M:2/2
R:Reel
S:Colin Hume's website,  colinhume.com  - chords can also be printed below the stave.
Q:1/2=92
%%MIDI chordname dim 0 3 6 9
%%MIDI gchord fHIg
%%MIDI chordprog 46   Orchestral Harp
%%MIDI bassprog 32    Acoustic Bass
%%MIDI program 68     Oboe
K:D
P:A
"D"df ed | "A/F#"c3A | "G/E"B3A | "A7"FA3 | "D"df ed | "Am/F#"=c3A | "B7"B=c BA | "Em"G4 |
P:B
"A7"G2 AB | "A7/C#"AG FE | "D"F2 "(A7/C#)"A2 | "Bm"d4 | "E7/G#"d2 ef | "E7"ed cB | "A"c2 d2 | "A7/C#"e3E |
P:C
"D"FA GF | "G/E"G3G | "A7"GB AG | "A/F#"A3A | "D/B"Ac BA | "G/E"Bd cB | "A/F#"ce dc | "G"B3A |
P:D
"D"FG Ad | "Em"A2 G2 | "A7"EF GE | "Bm"F2 D2 | "D"FA df | "Em"e3d | "A7"dc Bc |1,2 "D"d4 [I:MIDI=program 60] :|
[3 "Ddim/G#"d4 | "^Coda" "D/A"FA df | "A7"e3d | "D"d4- | "/"d2 z2 |]

